site/static/tutorial/icons/md.svg

<svg height="24" viewBox="0 0 24 24" width="24" xmlns="http://www.w3.org/2000/svg"><path d="m2 16v-8h2l3 3 3-3h2v8h-2v-5.17l-3 3-3-3v5.17zm14-8h3v4h2.5l-4 4.5-4-4.5h2.5z" fill="#ff3e00"/></svg>

<?xml version="1.0" encoding="utf-8"?>
<svg xmlns="http://www.w3.org/2000/svg" style="width:24px;height:24px" viewBox="0 0 24 24">
	<path fill="#ff3e00" d="M2,16V8H4L7,11L10,8H12V16H10V10.83L7,13.83L4,10.83V16H2M16,8H19V12H21.5L17.5,16.5L13.5,12H16V8Z" />
</svg>
